X:1
T:C'est L'aviron
M:2/4
L:1/8
K:D
 F2 FE| D3 A| AA AA| B2 A2| F2 FE| D3 A| AA AA| B2 A2| A2 AA| d3 A|\
 AA AG| F2 E2| D2 DE| F2 ED| CD EF| G2 F2| D2 DE| F2 ED| C2 E2| D4|\
 D2 DE| F2 ED| CD EF| G2 F2| D2 DE| F2 ED| C2 E2| D4|
